X:1
T:Lee, 77.77 D
T:Lee, 77.77 D
T:Charles A. White, 1898
T:Public Domain Courtesy of the Cyber Hymnal™
C:Charles A. White, 1898
Z:Public Domain
Z:Courtesy of the Cyber Hymnal™
%%score 1 2
L:1/8
Q:1/4=90
M:3/4
K:Bb
V:1 treble 
V:2 bass 
V:1
 [DB][Ec] | [Fd]3 [DF] [EG][CEA] | [DB]4 [CA][DB] | [Ec]3 [EA] [EG][EF] | [DB]4 [DB][EB] | %5
 [FB]3 [FB] [GB][FB] | [EG]4 [EA][EG] | [DF]3 [DF] [CF][EF] | [DF]4 DE | F3 F EF | G4 CD | %11
 E3 E DC | D4 [DF][DF] | [Fd]3 [Fd] [Ec][Fd] | [Ge]4 [Fd][Fe] | %15
 !fermata![Ff]3"^riten." [Fd] [Fc]>[FB] | [FB]4 |] %17
V:2
 [D,B,][C,A,] | [B,,B,]3 [B,,B,] [F,,F,][F,,F,] | [B,,F,]4 [F,,F,][B,,F,] | %3
 [F,,A,]3 [F,,C] [F,,B,][F,,A,] | [B,,F,B,]4 [B,,B,][C,B,] | [D,B,]3 [D,B,] [E,B,][D,B,] | %6
 [E,B,]4 [E,B,][E,B,] | [F,B,]3 [F,B,] [F,A,][F,C] | [B,,B,]4 [B,,B,][F,,C] | %9
 [B,,D]3 [B,,D] [B,,C][B,,D] | [E,E]4 [F,,A,][B,,B,] | [A,,C]3 [F,,C] [B,,B,][F,,A,] | %12
 [B,,B,]4 [B,,B,][B,,B,] | [B,,B,]3 [B,,B,] [F,,A,][B,,B,] | [E,B,]4 [B,,B,][F,,A,,C] | %15
 !fermata![B,,D]3 [B,,F] [F,,A,,E]>[B,,D] | [B,,D]4 |] %17

